X:1
T:RVW2/1/125 There Stands a Lady
T:RVW2/1/125 There Stands a Lady
T:Children's Games, Weobley [2 of 3]
T:Transcribed by Simon Furey and Lewis Jones
C:Transcribed by Simon Furey and Lewis Jones
L:1/8
Q:1/4=100
M:2/4
K:G
V:1 treble 
V:1
 B>BBA | GBdB | A>BcA | GA B2 | B>BBA | GBdB |"^(a)" AddA | BA G2 || B>BBA | GBdB | A>BcA | GA B2 | %12
 B>BBA | GBdB |"^(a) var." AddF | BA G2 |] %16

